assets/brush_trace_bottom.svg

<svg xmlns="http://www.w3.org/2000/svg" viewBox="0 0 262.741 95.13"><defs><style>.a{fill:#292422}</style></defs><path class="a" d="M156.941 27.399l1.1.707c-3.582.289-7.2.686-10.776.627l-44.876.2-31.294-.237c1.795 1.163 4.209-.474 5.564 1.195-5.787 0-11.546-.39-17.332 0 5.141.923 10.445.418 15.614 1.3l.136.484c-3.5 0-7.063.641-10.493.021-1.557.857-3.575-1.32-4.5 1.1.5.188 1.458-.533 1.515.582-4.745.728-9.214-.954-13.966-.23 1.8-.244 3.566 1.435 4.729.658.817.2 2.454.784 3.638-.056.068.247.227.54-.02.787l.853-.251-.133-.481c2.216.5 1.406-.421 3.194.86 10.122.345 20.194.791 30.3.8l1.094.7c-10.264.7-20.339-.481-30.594-.188.312.209.663.362.672.839-1.345.8-3.3-1.867-3.912-.136-11 .233-22.032-1.707-32.83-.808 1.207.505 2.861-.561 3.625.731l-.133-.484c1.9.3 4.258-.317 5.71.9l.29-.61 7.127.192c1.422.794 2.526.38 3.883.934.953-1.6 3-.345 4.066-.188 1.146-.122 2.672 1.062 3.359-.226 1.248 1.411 3.407-.192 4.46.495.371-.028.756-.442 1.123-.08 4.337 1.331 10.036-.1 14.348 1.675-2.615 1.045-5.431-.975-7.559.711a1.122 1.122 0 0 0-1.956-.456l-.125-.484c-1.985 1.379-5.254-.463-5.743.686l15.768.989 1.646 1.066c-5.886.463-11.964-.272-17.635.606l20.963.728 1.1.721c-2.16.6-4.428-.669-6.445.627-6.427-1.021-13.871-.557-19.546-.627l21.063 1.219 40.928 1.247 1.094.711c-4.851.463-9.889-.2-14.545.2l.129.481-1.546.206-64.517-1.714a1.375 1.375 0 0 1 .321.453.756.756 0 0 1-.048-.286c2.284.286 6.465-.021 6.828.815l-.125-.484c.516.209 1.463-.512 1.528.592l-.154.307c4.428.063 9.678.655 13.275.178l-.125-.484.419-.132c.321.348 1.039.348.949 1.021 9.773.317 20.259 1.163 30.435 1.282l1.1.711c-9.223.77-18.453-.8-27.391-.118.826.54 2.132-.286 2.5.815-1.619-.24-3.043 1.442-4.183-.3l-.3.617c-5.49-.094-11.829-.32-16.485-.272.6.261 1.643-.4 1.8.78 17.9 1.035 35.826 1.428 53.747 2.33l1.36.9c-20.388.216-40.621-.725-60.88-1.763l-5.331.547 3.638-.035c7.339.864 14.7.951 22.043 1.446l48.314 1.628c1.85.129 4.168-.641 5.58.4a398.949 398.949 0 0 1-52.805-.547l-2.13.637c-3.744-.944-7.847-.2-11.557-.582.045.418.365.54.663.728l43.263 2.372.125.491c-.928-.07-.485.749-1.148.857-.313-.077-.324-.415-.394-.658-.878-.167-2.266-.658-2.81.592-.066-1.115-1.845-.934-1.526-.592l.124.477-1.814.021c-1.868-2.477-1.614 1.09-3.912-.129-1.44.613-3.052-.3-4.039-.613l.853-.244c-2.848.164-6.714-.937-8.555.474-4.324.272-8.865-.669-12.985 0 14.942.728 29.835 2.02 44.811 2.17l1.094.707c-7.817.484-16.379-.725-23.331-.275l.016.348 8.517.293-.016-.338c4.865.878 10.2-.2 14.622 1.846q-12.23-.094-24.457-.206c.783.509 1.592.223 2.379.331 3.541-.1 7.262 1.163 10.6.463 2.981 1.184 6.472.307 9.046 1.439l-.421.129c.319.212.659.362.672.846-5.049 1.724-10.3-.463-14.828.808l19.249 1.254 1.1.707c-13.735.78-26.754-1.3-40.238-.421l.018.345 13.819.536-.02-.355 1.385.897-3.369.226 12.431.432.258.972c-4.6.557-9.957-.578-13.7-.063l.023.355 35.875 1.206-.02-.345 1.112.718c-1.116-.331-2.341.947-3.362.223-.165.564-.944 1.327-.469 1.689 34.687.975 69.093 1.62 104-5.953-1.386-.5-3.231.707-4.188-.307a8.163 8.163 0 0 0 .933-.286c-.9.185-1.788.327-2.3-.606 2.427-.428 4.92-1.09 7.3-.885l.125.484a1.054 1.054 0 0 1-.183.237l3.385-.167.124.484-4.217 1.264c4.858-1.32 9.4.954 14.267-.373l.125.491-2.121.627 4.442-1a.785.785 0 0 1-.484-.449c6-1.71 12.155-2.668 18.351-4.128a19.474 19.474 0 0 1 2.862-3.547 43.71 43.71 0 0 0 10.7-16.486c.274-7.326.658-14.644 1.1-21.948-2.357-9.137-8.32-17.479-17.855-23.251a19.562 19.562 0 0 1-2.115-1.5c-2.574 1.188-5.581 1.749-7.761 3.462l-.129-.477c-4.525 1.393-9.413 1.776-14.2 3.2l5.906-.975.125.477 1.838-.8.253.958c-28.694 7.05-57.5 8.962-85.954 10.432l1.1.711q-24.1.914-48.078.115l.948 1.017-.419.118c.319.212.666.362.672.836l-1.268.383.557.362 39.668.843.124.484c-10.563.432-21.539.61-32.3.317l-53.065-1.508-9.085.125c7.785-.042 15.51 1.163 23.307 1.076a26.686 26.686 0 0 0 9.913.411c1.021.129 2.467 1.118 3.063.376 3.726.265 8.084-.042 11.161.815 5.2 1.3 11.131-.745 15.894 1.48-9.644.024-20.149.1-28.934.087l17.044.613 1.093.707c-20.778.031-42.262-1.331-62.155-1.386 41.621.924 82.952 5.171 124.852 3.142z"/><path class="a" d="M230.887 70.338c-15.755 2.159-31.548 3.706-45.091 5.092l.236.483-4.347.157 1.597.52c15.326-1.526 30.959-2.828 46.7-4.594a11.134 11.134 0 0 1 .905-1.658zm.811-1.119a16.3 16.3 0 0 1 1.5-1.6c-3.079.359-6.36.474-7.1.8a.808.808 0 0 1 .77.669l-8.2 1.261c4.503-.179 8.777-.608 13.03-1.13zM62.716 51.329c-4.856-1.686-11.947-.846-17.347-.972l7.611.125c-.132 1.755 8.116.708 9.736.847zm136.269 21.287l-4.1.63zm-10.138 7.116l10.885-.373-9.816.742zm11.986-74.525c.484-.24.164-.54.042-.78.059-.923 2.992 1.317 2.762-.69.982.331 2-.132 3-.2-.118.362-.7.373-1.1.435l.77.658zm-4.94 72.33l-8.461.784zm-13.522 3.082c2.254-.78 5.256-.108 7.886-.171-2.78.941-5.267-.013-7.886.171z"/><path class="a" d="M145.587 82.64c5.319-1.428 17.054-.718 25.6-1.083l.282-.3c6.127-.3 12.557-.035 18.256-.745l1.585.54c-15.162-.038-30.627 2.215-45.723 1.588zm22.26-75.2l9.011-.606-7.374.355zm43.501.262l-6.8.522zm-6.836.797l-2.459.387z"/><path class="a" d="M155.614 82.58c.578-.756 1.825-.206 2.72.091-.477.118-1.884.508-2.72-.091zm-10.266.467l7.876-.171-5.462.585zm8.809-8.167l-9.248.118zm-25.761 8.857a58.278 58.278 0 0 1 16.322-.188c-5.469.468-10.833-.056-16.322.188z"/><path class="a" d="M118.131 83.803c5.827.4 11.53-1.3 17.677-.122-5.577.949-11.672-.278-17.677.122zm7.074-16.057l16.58.307-12.787.156zm-11.71 26.963c3.086.226 8.092-.641 10.861.4-3.623-.124-7.304.311-10.861-.4zm13.709-18.366l4.082.153-3.02.2zm-2.846-.809l5.187-.286-4.344.167zm-5.097-54.69c10.509.024 21.157-.226 31.847-1.017l-.237-.474.017.338-14.142.1-.014-.341 14.954-.223-.817.122c3.674 1.69 7.69.3 12.18 1.24-14.598-.296-29.405 1.373-43.788.255zm-30.16 3.341l76.116-.286-60.1.425zm23.201 59.619c-.794.721 2.355-1.62 3.546-.028zm-1.311-8.5l.031.345-8.969-.185-.014-.345c6.876.157 13.933-.495 20.642.463-3.919-.56-9.366.614-11.69-.278zm36.372-58.591zm-39.348 51.328c3.56-.543 9.175.575 13.856.209zm.444 15.627l2.191-.066-1.634.254z"/><path class="a" d="M105.392 83.953c.815-.383 2.717-1.028 3.8-.338a14.785 14.785 0 0 0-3.8.338zm2.996-36.441c2.814 0 5.6.383 8.422 0l-.244-.474 1.658-.254-1.658.254.244.474 11.676.275zm-9.192 35.674l2.72.108-2.48.373zm10.935-19.84l-4.09-.153zm1.567-6.367l-4.9-.031zM99.336 79.941l-3.546.031zm31.808-63.911l-9.248.118zm-29.26 54.753l-5.43-.206zm-9.23 6.705c-1.268-1.163-4.323.223-5.646-1.48 4.4-.2 10.46-.655 14.386.383-2.913 1.097-6.577-1.582-8.74 1.097zm15.012-14.25l-16.037-.125zm-7.359 4.069c-.035.522.683.637 1.3.843l-11.662-.286 1.648-.258-2.145-.71 15.741.435c-1.637-.01-3.182-.592-4.882-.024zm-1.815-2.237l-3.246-.279zm-2.467 2.202l-2.476.376zm26.123-51.426l-10.06.247zM92.157 72.48l-4.6-.331zm-8.145.829c-1.515-2.1-6.413-1-9.68-1.62l15.727.435c-1.989.136-4.385-.073-5.984.4 2.525 1.648 6.939.32 10.265 1.014l-12.491-.157zm36.024-59.62l-7.865.171zM86.882 77.021l-3.509.021zm10.41-22.153l-4.619-.334zM83.059 75.604c.958.2 2.814-.522 2.947.571zm28.993-56.258l-4.051-.157zM97.76 47.359l-3.537.031zM82.874 60.045h8.433l-1.644.258 2.125.7c-2.083-1.5-5.991-.722-8.914-.958zm29.443-44.28l-2.459.383zm-8.237-1.799c3.253-.975 7.242.01 10.868-.383zm-3.732 28.244l-9.777-.063zm5.243-17.942l-3.243-.275zm-1.793 1.47l-2.187.073zm-4.754-9.764l-.017-.355 10.6-.07.038.345-9.788-.052zm-.328 20.321l-8.13-.307zm-16.488 30.75l-4.88-.024zm20.551-42.986l-3.535.021zM78.972 71.946l-8.133-.317zm13.867-29.712l-5.97-.383zM41.86 67.676l23.634.254-.251-.484 2.985-.209c-1.278.373 1.212 1.209 2.672.888l-.24-.481c6.973 1.526 17.131-.439 23.589 1.052-17.055.457-34.941-.42-52.389-1.02zm35.858-.986l-6.545.223zM61.093 41.586c11.4-.672 25.964-.091 38.845.516zm34.49 2.344l-29.082-.47zm7.602-24.842l-16.552-.307zM93.024 36.142l-11.118-.1zm2.641-10.467l-7.59-.122zm2.76 14.09l-39.364-.69zm-17.673 6.9l-2.181.073zM71.27 66.46l-3.807.331zm17.847-40.83l-3.267-.272zm3.12-7.656l-3.264-.286zM62.811 64.907c2.261-.038 4.629-.32 6.775.254zm11.777-2.041l-18.458-.54zm-7.917 3.598l-3.535.021zm5.467-6.016l-13.55-.516zm2.925-41.398c5.288-.373 10.213.735 15.5-.045a.792.792 0 0 0-.763-.655l2.163-.073-1.637.254 1.321.829a95.759 95.759 0 0 1-16.584-.31zm7.303-1.568c.582 1.122 2.8 1 4.323.641l-5.183.272c.122-.369.718-.369 1.118-.428-.488-1.226-2.762-.192-4.027-.94l9.77.052zM65.151 31.359l9.488.359H66.21zm13.474-13.215l-2.18.08zm-8.484 11.544l-2.187.08zm-.04 3.978l-13.013-.32zM57.798 16.608c7.782-.669 16.242.536 24.445.143-7.747.275-16.312.296-24.445-.143zm9.637 7.618l-4.873-.024zm19.288 25.469c2.435-.857 5.6.272 8.429.017zm-41.595-21.23a225.108 225.108 0 0 1 24.982.307c-7.948.237-16.702-.021-24.982-.307zm13.367-4.385c1.08.1 3.459-1.191 4.89.017zm25.81 25.218l-3.839.331zM62.452 23.7l-17.674.118zm.396 25.267l16.016.125-5.988.415zm4.839-9.596c2.477-1.111 7.97-.021 11.972-.021zm-15.703 3.992l23.63.254-5.162.268zm-2.799-27.34l7.6.136-3.825.327zm32.48 15.992l-2.48.376zm9.683-13.986l-3 .216zM64.733 38.796l-3.825.331zm-9.259-5.082c1.808-.8-3.779-.46-5.664-.686 5.242-.728 11.16.575 16.859 0l-11.439.209zm-.397 7.869l-2.713-.108zm17.901-25.658a14.889 14.889 0 0 1 5.73-.091zM43.304 32.474l-2.989.192zm-8.412-.007l-4.891-.021zm8.781-17.479l.822-.122-2.146-.714 7.632.122c-2.121.104-6.19-.526-6.308.714zm-1.874 4.971l-13.856-.219zm-4.566 4.083l-2.181.073zm2.42-10.001l-5.73.1zm-20.631-.464l-5.183.286zm-16.897.792L0 13.658l2.163-.08-.289.31c.432.676 2.529.3 3.79.46-.122-.237-.439-.533.035-.791-1.3.362 1.191 1.2 2.668.888l.825-.129-1.31-.832 4.065.153-1.637.251 2.132.714-11.143-.108z"/></svg>

<svg xmlns="http://www.w3.org/2000/svg" viewBox="0 0 262.741 95.13"><defs><style>.a{fill:#292422}</style></defs><path class="a" d="M156.941 27.399l1.1.707c-3.582.289-7.2.686-10.776.627l-44.876.2-31.294-.237c1.795 1.163 4.209-.474 5.564 1.195-5.787 0-11.546-.39-17.332 0 5.141.923 10.445.418 15.614 1.3l.136.484c-3.5 0-7.063.641-10.493.021-1.557.857-3.575-1.32-4.5 1.1.5.188 1.458-.533 1.515.582-4.745.728-9.214-.954-13.966-.23 1.8-.244 3.566 1.435 4.729.658.817.2 2.454.784 3.638-.056.068.247.227.54-.02.787l.853-.251-.133-.481c2.216.5 1.406-.421 3.194.86 10.122.345 20.194.791 30.3.8l1.094.7c-10.264.7-20.339-.481-30.594-.188.312.209.663.362.672.839-1.345.8-3.3-1.867-3.912-.136-11 .233-22.032-1.707-32.83-.808 1.207.505 2.861-.561 3.625.731l-.133-.484c1.9.3 4.258-.317 5.71.9l.29-.61 7.127.192c1.422.794 2.526.38 3.883.934.953-1.6 3-.345 4.066-.188 1.146-.122 2.672 1.062 3.359-.226 1.248 1.411 3.407-.192 4.46.495.371-.028.756-.442 1.123-.08 4.337 1.331 10.036-.1 14.348 1.675-2.615 1.045-5.431-.975-7.559.711a1.122 1.122 0 0 0-1.956-.456l-.125-.484c-1.985 1.379-5.254-.463-5.743.686l15.768.989 1.646 1.066c-5.886.463-11.964-.272-17.635.606l20.963.728 1.1.721c-2.16.6-4.428-.669-6.445.627-6.427-1.021-13.871-.557-19.546-.627l21.063 1.219 40.928 1.247 1.094.711c-4.851.463-9.889-.2-14.545.2l.129.481-1.546.206-64.517-1.714a1.375 1.375 0 0 1 .321.453.756.756 0 0 1-.048-.286c2.284.286 6.465-.021 6.828.815l-.125-.484c.516.209 1.463-.512 1.528.592l-.154.307c4.428.063 9.678.655 13.275.178l-.125-.484.419-.132c.321.348 1.039.348.949 1.021 9.773.317 20.259 1.163 30.435 1.282l1.1.711c-9.223.77-18.453-.8-27.391-.118.826.54 2.132-.286 2.5.815-1.619-.24-3.043 1.442-4.183-.3l-.3.617c-5.49-.094-11.829-.32-16.485-.272.6.261 1.643-.4 1.8.78 17.9 1.035 35.826 1.428 53.747 2.33l1.36.9c-20.388.216-40.621-.725-60.88-1.763l-5.331.547 3.638-.035c7.339.864 14.7.951 22.043 1.446l48.314 1.628c1.85.129 4.168-.641 5.58.4a398.949 398.949 0 0 1-52.805-.547l-2.13.637c-3.744-.944-7.847-.2-11.557-.582.045.418.365.54.663.728l43.263 2.372.125.491c-.928-.07-.485.749-1.148.857-.313-.077-.324-.415-.394-.658-.878-.167-2.266-.658-2.81.592-.066-1.115-1.845-.934-1.526-.592l.124.477-1.814.021c-1.868-2.477-1.614 1.09-3.912-.129-1.44.613-3.052-.3-4.039-.613l.853-.244c-2.848.164-6.714-.937-8.555.474-4.324.272-8.865-.669-12.985 0 14.942.728 29.835 2.02 44.811 2.17l1.094.707c-7.817.484-16.379-.725-23.331-.275l.016.348 8.517.293-.016-.338c4.865.878 10.2-.2 14.622 1.846q-12.23-.094-24.457-.206c.783.509 1.592.223 2.379.331 3.541-.1 7.262 1.163 10.6.463 2.981 1.184 6.472.307 9.046 1.439l-.421.129c.319.212.659.362.672.846-5.049 1.724-10.3-.463-14.828.808l19.249 1.254 1.1.707c-13.735.78-26.754-1.3-40.238-.421l.018.345 13.819.536-.02-.355 1.385.897-3.369.226 12.431.432.258.972c-4.6.557-9.957-.578-13.7-.063l.023.355 35.875 1.206-.02-.345 1.112.718c-1.116-.331-2.341.947-3.362.223-.165.564-.944 1.327-.469 1.689 34.687.975 69.093 1.62 104-5.953-1.386-.5-3.231.707-4.188-.307a8.163 8.163 0 0 0 .933-.286c-.9.185-1.788.327-2.3-.606 2.427-.428 4.92-1.09 7.3-.885l.125.484a1.054 1.054 0 0 1-.183.237l3.385-.167.124.484-4.217 1.264c4.858-1.32 9.4.954 14.267-.373l.125.491-2.121.627 4.442-1a.785.785 0 0 1-.484-.449c6-1.71 12.155-2.668 18.351-4.128a19.474 19.474 0 0 1 2.862-3.547 43.71 43.71 0 0 0 10.7-16.486c.274-7.326.658-14.644 1.1-21.948-2.357-9.137-8.32-17.479-17.855-23.251a19.562 19.562 0 0 1-2.115-1.5c-2.574 1.188-5.581 1.749-7.761 3.462l-.129-.477c-4.525 1.393-9.413 1.776-14.2 3.2l5.906-.975.125.477 1.838-.8.253.958c-28.694 7.05-57.5 8.962-85.954 10.432l1.1.711q-24.1.914-48.078.115l.948 1.017-.419.118c.319.212.666.362.672.836l-1.268.383.557.362 39.668.843.124.484c-10.563.432-21.539.61-32.3.317l-53.065-1.508-9.085.125c7.785-.042 15.51 1.163 23.307 1.076a26.686 26.686 0 0 0 9.913.411c1.021.129 2.467 1.118 3.063.376 3.726.265 8.084-.042 11.161.815 5.2 1.3 11.131-.745 15.894 1.48-9.644.024-20.149.1-28.934.087l17.044.613 1.093.707c-20.778.031-42.262-1.331-62.155-1.386 41.621.924 82.952 5.171 124.852 3.142z"/><path class="a" d="M230.887 70.338c-15.755 2.159-31.548 3.706-45.091 5.092l.236.483-4.347.157 1.597.52c15.326-1.526 30.959-2.828 46.7-4.594a11.134 11.134 0 0 1 .905-1.658zM231.698 69.219a16.3 16.3 0 0 1 1.5-1.6c-3.079.359-6.36.474-7.1.8a.808.808 0 0 1 .77.669l-8.2 1.261c4.503-.179 8.777-.608 13.03-1.13zM62.716 51.329c-4.856-1.686-11.947-.846-17.347-.972l7.611.125c-.132 1.755 8.116.708 9.736.847zM198.985 72.616l-4.1.63zM188.847 79.732l10.885-.373-9.816.742zM200.833 5.207c.484-.24.164-.54.042-.78.059-.923 2.992 1.317 2.762-.69.982.331 2-.132 3-.2-.118.362-.7.373-1.1.435l.77.658zM195.893 77.537l-8.461.784zM182.371 80.619c2.254-.78 5.256-.108 7.886-.171-2.78.941-5.267-.013-7.886.171z"/><path class="a" d="M145.587 82.64c5.319-1.428 17.054-.718 25.6-1.083l.282-.3c6.127-.3 12.557-.035 18.256-.745l1.585.54c-15.162-.038-30.627 2.215-45.723 1.588zM167.847 7.44l9.011-.606-7.374.355zM211.348 7.702l-6.8.522zM204.512 8.499l-2.459.387z"/><path class="a" d="M155.614 82.58c.578-.756 1.825-.206 2.72.091-.477.118-1.884.508-2.72-.091zM145.348 83.047l7.876-.171-5.462.585zM154.157 74.88l-9.248.118zM128.396 83.737a58.278 58.278 0 0 1 16.322-.188c-5.469.468-10.833-.056-16.322.188z"/><path class="a" d="M118.131 83.803c5.827.4 11.53-1.3 17.677-.122-5.577.949-11.672-.278-17.677.122zM125.205 67.746l16.58.307-12.787.156zM113.495 94.709c3.086.226 8.092-.641 10.861.4-3.623-.124-7.304.311-10.861-.4zM127.204 76.343l4.082.153-3.02.2zM124.358 75.534l5.187-.286-4.344.167zM119.261 20.844c10.509.024 21.157-.226 31.847-1.017l-.237-.474.017.338-14.142.1-.014-.341 14.954-.223-.817.122c3.674 1.69 7.69.3 12.18 1.24-14.598-.296-29.405 1.373-43.788.255zM89.101 24.185l76.116-.286-60.1.425zM112.302 83.804c-.794.721 2.355-1.62 3.546-.028zM110.991 75.304l.031.345-8.969-.185-.014-.345c6.876.157 13.933-.495 20.642.463-3.919-.56-9.366.614-11.69-.278zM147.363 16.713zM108.015 68.041c3.56-.543 9.175.575 13.856.209zM108.459 83.668l2.191-.066-1.634.254z"/><path class="a" d="M105.392 83.953c.815-.383 2.717-1.028 3.8-.338a14.785 14.785 0 0 0-3.8.338zM108.388 47.512c2.814 0 5.6.383 8.422 0l-.244-.474 1.658-.254-1.658.254.244.474 11.676.275zM99.196 83.186l2.72.108-2.48.373zM110.131 63.346l-4.09-.153zM111.698 56.979l-4.9-.031zM99.336 79.941l-3.546.031zM131.144 16.03l-9.248.118zM101.884 70.783l-5.43-.206zM92.654 77.488c-1.268-1.163-4.323.223-5.646-1.48 4.4-.2 10.46-.655 14.386.383-2.913 1.097-6.577-1.582-8.74 1.097zM107.666 63.238l-16.037-.125zM100.307 67.307c-.035.522.683.637 1.3.843l-11.662-.286 1.648-.258-2.145-.71 15.741.435c-1.637-.01-3.182-.592-4.882-.024zM98.492 65.07l-3.246-.279zM96.025 67.272l-2.476.376zM122.148 15.846l-10.06.247zM92.157 72.48l-4.6-.331zM84.012 73.309c-1.515-2.1-6.413-1-9.68-1.62l15.727.435c-1.989.136-4.385-.073-5.984.4 2.525 1.648 6.939.32 10.265 1.014l-12.491-.157zM120.036 13.689l-7.865.171zM86.882 77.021l-3.509.021zM97.292 54.868l-4.619-.334zM83.059 75.604c.958.2 2.814-.522 2.947.571zM112.052 19.346l-4.051-.157zM97.76 47.359l-3.537.031zM82.874 60.045h8.433l-1.644.258 2.125.7c-2.083-1.5-5.991-.722-8.914-.958zM112.317 15.765l-2.459.383zM104.08 13.966c3.253-.975 7.242.01 10.868-.383zM100.348 42.21l-9.777-.063zM105.591 24.268l-3.243-.275zM103.798 25.738l-2.187.073zM99.044 15.974l-.017-.355 10.6-.07.038.345-9.788-.052zM98.716 36.295l-8.13-.307zM82.228 67.045l-4.88-.024zM102.779 24.059l-3.535.021zM78.972 71.946l-8.133-.317zM92.839 42.234l-5.97-.383zM41.86 67.676l23.634.254-.251-.484 2.985-.209c-1.278.373 1.212 1.209 2.672.888l-.24-.481c6.973 1.526 17.131-.439 23.589 1.052-17.055.457-34.941-.42-52.389-1.02zM77.718 66.69l-6.545.223zM61.093 41.586c11.4-.672 25.964-.091 38.845.516zM95.583 43.93l-29.082-.47zM103.185 19.088l-16.552-.307zM93.024 36.142l-11.118-.1zM95.665 25.675l-7.59-.122zM98.425 39.765l-39.364-.69zM80.752 46.665l-2.181.073zM71.27 66.46l-3.807.331zM89.117 25.63l-3.267-.272zM92.237 17.974l-3.264-.286zM62.811 64.907c2.261-.038 4.629-.32 6.775.254zM74.588 62.866l-18.458-.54zM66.671 66.464l-3.535.021zM72.138 60.448l-13.55-.516zM75.063 19.05c5.288-.373 10.213.735 15.5-.045a.792.792 0 0 0-.763-.655l2.163-.073-1.637.254 1.321.829a95.759 95.759 0 0 1-16.584-.31zM82.366 17.482c.582 1.122 2.8 1 4.323.641l-5.183.272c.122-.369.718-.369 1.118-.428-.488-1.226-2.762-.192-4.027-.94l9.77.052zM65.151 31.359l9.488.359H66.21zM78.625 18.144l-2.18.08zM70.141 29.688l-2.187.08zM70.101 33.666l-13.013-.32zM57.798 16.608c7.782-.669 16.242.536 24.445.143-7.747.275-16.312.296-24.445-.143zM67.435 24.226l-4.873-.024zM86.723 49.695c2.435-.857 5.6.272 8.429.017zM45.128 28.465a225.108 225.108 0 0 1 24.982.307c-7.948.237-16.702-.021-24.982-.307zM58.495 24.08c1.08.1 3.459-1.191 4.89.017zM84.305 49.298l-3.839.331zM62.452 23.7l-17.674.118zM62.848 48.967l16.016.125-5.988.415zM67.687 39.371c2.477-1.111 7.97-.021 11.972-.021zM51.984 43.363l23.63.254-5.162.268zM49.185 16.023l7.6.136-3.825.327zM81.665 32.015l-2.48.376zM91.348 18.029l-3 .216zM64.733 38.796l-3.825.331zM55.474 33.714c1.808-.8-3.779-.46-5.664-.686 5.242-.728 11.16.575 16.859 0l-11.439.209zM55.077 41.583l-2.713-.108zM72.978 15.925a14.889 14.889 0 0 1 5.73-.091zM43.304 32.474l-2.989.192zM34.892 32.467l-4.891-.021zM43.673 14.988l.822-.122-2.146-.714 7.632.122c-2.121.104-6.19-.526-6.308.714zM41.799 19.959l-13.856-.219zM37.233 24.042l-2.181.073zM39.653 14.041l-5.73.1zM19.022 13.577l-5.183.286zM2.125 14.369L0 13.658l2.163-.08-.289.31c.432.676 2.529.3 3.79.46-.122-.237-.439-.533.035-.791-1.3.362 1.191 1.2 2.668.888l.825-.129-1.31-.832 4.065.153-1.637.251 2.132.714-11.143-.108z"/></svg>
